portfolio-website/public/assets/github.svg

<svg xmlns="http://www.w3.org/2000/svg"  viewBox="0 0 50 50" width="50px" height="50px"><path d="M 25 2 C 12.311335 2 2 12.311335 2 25 C 2 37.688665 12.311335 48 25 48 C 37.688665 48 48 37.688665 48 25 C 48 12.311335 37.688665 2 25 2 z M 25 4 C 36.607335 4 46 13.392665 46 25 C 46 25.071371 45.994849 25.141688 45.994141 25.212891 C 45.354527 25.153853 44.615508 25.097776 43.675781 25.064453 C 42.347063 25.017336 40.672259 25.030987 38.773438 25.125 C 38.843852 24.634651 38.893205 24.137377 38.894531 23.626953 C 38.991361 21.754332 38.362521 20.002464 37.339844 18.455078 C 37.586913 17.601352 37.876747 16.515218 37.949219 15.283203 C 38.031819 13.878925 37.910599 12.321765 36.783203 11.269531 L 36.494141 11 L 36.099609 11 C 33.416539 11 31.580023 12.12321 30.457031 13.013672 C 28.835529 12.386022 27.01222 12 25 12 C 22.976367 12 21.135525 12.391416 19.447266 13.017578 C 18.324911 12.126691 16.486785 11 13.800781 11 L 13.408203 11 L 13.119141 11.267578 C 12.020956 12.287321 11.919778 13.801759 11.988281 15.199219 C 12.048691 16.431506 12.321732 17.552142 12.564453 18.447266 C 11.524489 20.02486 10.900391 21.822018 10.900391 23.599609 C 10.900391 24.111237 10.947969 24.610071 11.017578 25.101562 C 9.2118173 25.017808 7.6020996 25.001668 6.3242188 25.046875 C 5.3845143 25.080118 4.6454422 25.135713 4.0058594 25.195312 C 4.0052628 25.129972 4 25.065482 4 25 C 4 13.392665 13.392665 4 25 4 z M 14.396484 13.130859 C 16.414067 13.322043 17.931995 14.222972 18.634766 14.847656 L 19.103516 15.261719 L 19.681641 15.025391 C 21.263092 14.374205 23.026984 14 25 14 C 26.973016 14 28.737393 14.376076 30.199219 15.015625 L 30.785156 15.273438 L 31.263672 14.847656 C 31.966683 14.222758 33.487184 13.321554 35.505859 13.130859 C 35.774256 13.575841 36.007486 14.208668 35.951172 15.166016 C 35.883772 16.311737 35.577304 17.559658 35.345703 18.300781 L 35.195312 18.783203 L 35.494141 19.191406 C 36.483616 20.540691 36.988121 22.000937 36.902344 23.544922 L 36.900391 23.572266 L 36.900391 23.599609 C 36.900391 26.095064 36.00178 28.092339 34.087891 29.572266 C 32.174048 31.052199 29.152663 32 24.900391 32 C 20.648118 32 17.624827 31.052192 15.710938 29.572266 C 13.797047 28.092339 12.900391 26.095064 12.900391 23.599609 C 12.900391 22.134903 13.429308 20.523599 14.40625 19.191406 L 14.699219 18.792969 L 14.558594 18.318359 C 14.326866 17.530484 14.042825 16.254103 13.986328 15.101562 C 13.939338 14.14294 14.166221 13.537027 14.396484 13.130859 z M 8.8847656 26.021484 C 9.5914575 26.03051 10.40146 26.068656 11.212891 26.109375 C 11.290419 26.421172 11.378822 26.727898 11.486328 27.027344 C 8.178972 27.097092 5.7047309 27.429674 4.1796875 27.714844 C 4.1152068 27.214494 4.0638483 26.710021 4.0351562 26.199219 C 5.1622058 26.092262 6.7509972 25.994233 8.8847656 26.021484 z M 41.115234 26.037109 C 43.247527 26.010033 44.835728 26.108156 45.962891 26.214844 C 45.934234 26.718328 45.883749 27.215664 45.820312 27.708984 C 44.24077 27.41921 41.699674 27.086688 38.306641 27.033203 C 38.411945 26.739677 38.499627 26.438219 38.576172 26.132812 C 39.471291 26.084833 40.344564 26.046896 41.115234 26.037109 z M 11.912109 28.019531 C 12.508849 29.215327 13.361516 30.283019 14.488281 31.154297 C 16.028825 32.345531 18.031623 33.177838 20.476562 33.623047 C 20.156699 33.951698 19.86578 34.312595 19.607422 34.693359 L 19.546875 34.640625 C 19.552375 34.634325 19.04975 34.885878 18.298828 34.953125 C 17.547906 35.020374 16.621615 35 15.800781 35 C 14.575781 35 14.03621 34.42121 13.173828 33.367188 C 12.696283 32.72356 12.114101 32.202331 11.548828 31.806641 C 10.970021 31.401475 10.476259 31.115509 9.8652344 31.013672 L 9.7832031 31 L 9.6992188 31 C 9.2325521 31 8.7809835 31.03379 8.359375 31.515625 C 8.1485707 31.756544 8.003277 32.202561 8.0976562 32.580078 C 8.1920352 32.957595 8.4308563 33.189581 8.6445312 33.332031 C 10.011254 34.24318 10.252795 36.046511 11.109375 37.650391 C 11.909298 39.244315 13.635662 40 15.400391 40 L 18 40 L 18 44.802734 C 10.967811 42.320535 5.6646795 36.204613 4.3320312 28.703125 C 5.8629338 28.414776 8.4265387 28.068108 11.912109 28.019531 z M 37.882812 28.027344 C 41.445538 28.05784 44.08105 28.404061 45.669922 28.697266 C 44.339047 36.201504 39.034072 42.31987 32 44.802734 L 32 39.599609 C 32 38.015041 31.479642 36.267712 30.574219 34.810547 C 30.299322 34.368135 29.975945 33.949736 29.615234 33.574219 C 31.930453 33.11684 33.832364 32.298821 35.3125 31.154297 C 36.436824 30.284907 37.287588 29.220424 37.882812 28.027344 z M 23.699219 34.099609 L 26.5 34.099609 C 27.312821 34.099609 28.180423 34.7474 28.875 35.865234 C 29.569577 36.983069 30 38.484177 30 39.599609 L 30 45.398438 C 28.397408 45.789234 26.72379 46 25 46 C 23.27621 46 21.602592 45.789234 20 45.398438 L 20 39.599609 C 20 38.508869 20.467828 37.011307 21.208984 35.888672 C 21.950141 34.766037 22.886398 34.099609 23.699219 34.099609 z M 12.308594 35.28125 C 13.174368 36.179258 14.222525 37 15.800781 37 C 16.579948 37 17.552484 37.028073 18.476562 36.945312 C 18.479848 36.945018 18.483042 36.943654 18.486328 36.943359 C 18.36458 37.293361 18.273744 37.645529 18.197266 38 L 15.400391 38 C 14.167057 38 13.29577 37.55443 12.894531 36.751953 L 12.886719 36.738281 L 12.880859 36.726562 C 12.716457 36.421191 12.500645 35.81059 12.308594 35.28125 z"/></svg>

<svg xmlns="http://www.w3.org/2000/svg" xmlns:xlink="http://www.w3.org/1999/xlink" viewBox="0,0,256,256" width="50px" height="50px" fill-rule="nonzero"><g fill="#ffffff" fill-rule="nonzero" stroke="none" stroke-width="1" stroke-linecap="butt" stroke-linejoin="miter" stroke-miterlimit="10" stroke-dasharray="" stroke-dashoffset="0" font-family="none" font-weight="none" font-size="none" text-anchor="none" style="mix-blend-mode: normal"><g transform="scale(5.12,5.12)"><path d="M25,2c-12.68866,0 -23,10.31134 -23,23c0,12.68867 10.31134,23 23,23c12.68867,0 23,-10.31133 23,-23c0,-12.68866 -10.31133,-23 -23,-23zM25,4c11.60734,0 21,9.39266 21,21c0,0.07137 -0.00515,0.14169 -0.00586,0.21289c-0.63961,-0.05904 -1.37863,-0.11511 -2.31836,-0.14844c-1.32872,-0.04712 -3.00352,-0.03347 -4.90234,0.06055c0.07041,-0.49035 0.11977,-0.98762 0.12109,-1.49805c0.09683,-1.87262 -0.53201,-3.62449 -1.55469,-5.17187c0.24707,-0.85373 0.5369,-1.93986 0.60938,-3.17187c0.0826,-1.40428 -0.03862,-2.96144 -1.16602,-4.01367l-0.28906,-0.26953h-0.39453c-2.68307,0 -4.51959,1.12321 -5.64258,2.01367c-1.6215,-0.62765 -3.44481,-1.01367 -5.45703,-1.01367c-2.02363,0 -3.86447,0.39142 -5.55273,1.01758c-1.12235,-0.89089 -2.96048,-2.01758 -5.64648,-2.01758h-0.39258l-0.28906,0.26758c-1.09819,1.01974 -1.19936,2.53418 -1.13086,3.93164c0.06041,1.23229 0.33345,2.35292 0.57617,3.24805c-1.03996,1.57759 -1.66406,3.37475 -1.66406,5.15234c0,0.51163 0.04758,1.01046 0.11719,1.50195c-1.80576,-0.08375 -3.41548,-0.09989 -4.69336,-0.05469c-0.9397,0.03324 -1.67878,0.08884 -2.31836,0.14844c-0.0006,-0.06534 -0.00586,-0.12983 -0.00586,-0.19531c0,-11.60733 9.39266,-21 21,-21zM14.39648,13.13086c2.01758,0.19118 3.53551,1.09211 4.23828,1.7168l0.46875,0.41406l0.57813,-0.23633c1.58145,-0.65119 3.34534,-1.02539 5.31836,-1.02539c1.97302,0 3.73739,0.37608 5.19922,1.01563l0.58594,0.25781l0.47852,-0.42578c0.70301,-0.6249 2.22351,-1.5261 4.24219,-1.7168c0.2684,0.44498 0.50163,1.07781 0.44531,2.03516c-0.0674,1.14572 -0.37387,2.39364 -0.60547,3.13477l-0.15039,0.48242l0.29883,0.4082c0.98947,1.34928 1.49398,2.80953 1.4082,4.35352l-0.00195,0.02734v0.02734c0,2.49545 -0.89861,4.49273 -2.8125,5.97266c-1.91384,1.47993 -4.93523,2.42773 -9.1875,2.42773c-4.25227,0 -7.27556,-0.94781 -9.18945,-2.42773c-1.91389,-1.47993 -2.81055,-3.4772 -2.81055,-5.97266c0,-1.46471 0.52892,-3.07601 1.50586,-4.4082l0.29297,-0.39844l-0.14062,-0.47461c-0.23173,-0.78787 -0.51577,-2.06426 -0.57227,-3.2168c-0.04699,-0.95862 0.17989,-1.56453 0.41016,-1.9707zM8.88477,26.02148c0.70669,0.00903 1.51669,0.04717 2.32813,0.08789c0.07753,0.3118 0.16593,0.61852 0.27344,0.91797c-3.30736,0.06975 -5.7816,0.40233 -7.30664,0.6875c-0.06448,-0.50035 -0.11584,-1.00482 -0.14453,-1.51562c1.12705,-0.10696 2.71584,-0.20499 4.84961,-0.17773zM41.11523,26.03711c2.13229,-0.02708 3.72049,0.07105 4.84766,0.17773c-0.02866,0.50348 -0.07914,1.00082 -0.14258,1.49414c-1.57954,-0.28977 -4.12064,-0.6223 -7.51367,-0.67578c0.1053,-0.29353 0.19299,-0.59498 0.26953,-0.90039c0.89512,-0.04798 1.76839,-0.08592 2.53906,-0.0957zM11.91211,28.01953c0.59674,1.1958 1.44941,2.26349 2.57617,3.13477c1.54054,1.19123 3.54334,2.02354 5.98828,2.46875c-0.31986,0.32865 -0.61078,0.68955 -0.86914,1.07031l-0.06055,-0.05273c0.0055,-0.0063 -0.49713,0.24525 -1.24805,0.3125c-0.75092,0.06725 -1.67721,0.04688 -2.49805,0.04688c-1.225,0 -1.76457,-0.57879 -2.62695,-1.63281c-0.47755,-0.64363 -1.05973,-1.16486 -1.625,-1.56055c-0.57881,-0.40517 -1.07257,-0.69113 -1.68359,-0.79297l-0.08203,-0.01367h-0.08398c-0.46667,0 -0.91824,0.03379 -1.33984,0.51563c-0.2108,0.24092 -0.3561,0.68694 -0.26172,1.06445c0.09438,0.37752 0.3332,0.6095 0.54688,0.75195c1.36672,0.91115 1.60826,2.71448 2.46484,4.31836c0.79992,1.59392 2.52629,2.34961 4.29102,2.34961h2.59961v4.80273c-7.03219,-2.4822 -12.33532,-8.59812 -13.66797,-16.09961c1.5309,-0.28835 4.09451,-0.63502 7.58008,-0.68359zM37.88281,28.02734c3.56273,0.0305 6.19824,0.37672 7.78711,0.66992c-1.33087,7.50424 -6.63585,13.6226 -13.66992,16.10547v-5.20312c0,-1.58457 -0.52036,-3.3319 -1.42578,-4.78906c-0.2749,-0.44241 -0.59827,-0.86081 -0.95898,-1.23633c2.31522,-0.45738 4.21713,-1.2754 5.69727,-2.41992c1.12432,-0.86939 1.97509,-1.93387 2.57031,-3.12695zM23.69922,34.09961h2.80078c0.81282,0 1.68042,0.64779 2.375,1.76563c0.69458,1.11783 1.125,2.61894 1.125,3.73438v5.79883c-1.60259,0.3908 -3.27621,0.60156 -5,0.60156c-1.72379,0 -3.39741,-0.21077 -5,-0.60156v-5.79883c0,-1.09074 0.46783,-2.5883 1.20898,-3.71094c0.74116,-1.12264 1.67741,-1.78906 2.49023,-1.78906zM12.30859,35.28125c0.86577,0.89801 1.91393,1.71875 3.49219,1.71875c0.77917,0 1.7517,0.02807 2.67578,-0.05469c0.00329,-0.00029 0.00648,-0.00166 0.00977,-0.00195c-0.12175,0.35 -0.21258,0.70217 -0.28906,1.05664h-2.79687c-1.23333,0 -2.10462,-0.44557 -2.50586,-1.24805l-0.00781,-0.01367l-0.00586,-0.01172c-0.1644,-0.30537 -0.38021,-0.91597 -0.57226,-1.44531z"></path></g></g></svg>
